public/logos/ZT.svg

<?xml version="1.0" encoding="UTF-8"?>
<svg xmlns="http://www.w3.org/2000/svg" xmlns:xlink="http://www.w3.org/1999/xlink" width="176pt" height="37.94pt" viewBox="0 0 176 37.94" version="1.1">
<defs>
<clipPath id="clip1">
  <path d="M 0 14 L 19 14 L 19 37.941406 L 0 37.941406 Z M 0 14 "/>
</clipPath>
<clipPath id="clip2">
  <path d="M 139 14 L 158 14 L 158 37.941406 L 139 37.941406 Z M 139 14 "/>
</clipPath>
<clipPath id="clip3">
  <path d="M 39 14 L 57 14 L 57 37.941406 L 39 37.941406 Z M 39 14 "/>
</clipPath>
<clipPath id="clip4">
  <path d="M 95 14 L 114 14 L 114 37.941406 L 95 37.941406 Z M 95 14 "/>
</clipPath>
<clipPath id="clip5">
  <path d="M 57 14 L 78 14 L 78 37.941406 L 57 37.941406 Z M 57 14 "/>
</clipPath>
<clipPath id="clip6">
  <path d="M 157 14 L 176 14 L 176 37.941406 L 157 37.941406 Z M 157 14 "/>
</clipPath>
<clipPath id="clip7">
  <path d="M 121 14 L 138 14 L 138 37.941406 L 121 37.941406 Z M 121 14 "/>
</clipPath>
<clipPath id="clip8">
  <path d="M 71 14 L 94 14 L 94 37.941406 L 71 37.941406 Z M 71 14 "/>
</clipPath>
<clipPath id="clip9">
  <path d="M 17 14 L 39 14 L 39 37.941406 L 17 37.941406 Z M 17 14 "/>
</clipPath>
</defs>
<g id="surface1">
<g clip-path="url(#clip1)" clip-rule="nonzero">
<path style=" stroke:none;fill-rule:nonzero;fill:rgb(82.553101%,9.42688%,27.6474%);fill-opacity:1;" d="M 16.808594 18.765625 L 18.820312 14.539062 L 1.445312 14.539062 C 1.445312 14.539062 1.855469 15.40625 2.46875 16.699219 C 2.878906 17.640625 3.058594 18.238281 2.816406 19.703125 C 2.808594 19.742188 0.238281 34.34375 0.0351562 35.453125 C -0.167969 36.609375 0.527344 37.15625 1.4375 37.15625 C 2.308594 37.15625 16.0625 37.15625 16.0625 37.15625 L 15.109375 32.917969 L 5.734375 32.917969 L 6.640625 27.757812 L 15.289062 27.757812 L 16.039062 23.5 L 7.394531 23.5 L 8.226562 18.765625 L 16.808594 18.765625 "/>
</g>
<g clip-path="url(#clip2)" clip-rule="nonzero">
<path style=" stroke:none;fill-rule:nonzero;fill:rgb(82.553101%,9.42688%,27.6474%);fill-opacity:1;" d="M 155.152344 18.765625 L 157.167969 14.539062 L 140.617188 14.539062 C 140.617188 14.539062 141.027344 15.40625 141.644531 16.699219 C 142.050781 17.640625 142.234375 18.238281 141.988281 19.703125 C 141.984375 19.742188 139.40625 34.34375 139.207031 35.453125 C 139 36.609375 139.703125 37.15625 140.609375 37.15625 C 141.480469 37.15625 154.410156 37.15625 154.410156 37.15625 L 153.457031 32.917969 L 144.90625 32.917969 L 145.8125 27.757812 L 153.640625 27.757812 L 154.386719 23.5 L 146.566406 23.5 L 147.398438 18.765625 L 155.152344 18.765625 "/>
</g>
<g clip-path="url(#clip3)" clip-rule="nonzero">
<path style=" stroke:none;fill-rule:nonzero;fill:rgb(82.553101%,9.42688%,27.6474%);fill-opacity:1;" d="M 48.125 20.253906 C 48.511719 19.035156 49.839844 18.765625 51.785156 18.765625 L 55.300781 18.765625 L 56.839844 14.539062 C 56.839844 14.539062 51.382812 14.539062 50.832031 14.539062 C 48.652344 14.539062 43.675781 14.335938 42.609375 19.183594 C 41.128906 25.933594 49.886719 27.886719 49.449219 30.957031 C 49.183594 32.761719 47.464844 32.921875 45.089844 32.921875 C 43.761719 32.921875 39.84375 32.921875 39.84375 32.921875 L 40.828125 37.15625 L 46.769531 37.15625 C 49.84375 37.15625 54.140625 36.59375 55.148438 32.765625 C 56.96875 25.878906 47.144531 23.636719 48.125 20.253906 "/>
</g>
<g clip-path="url(#clip4)" clip-rule="nonzero">
<path style=" stroke:none;fill-rule:nonzero;fill:rgb(82.553101%,9.42688%,27.6474%);fill-opacity:1;" d="M 108.589844 21.648438 C 108.265625 23.5 106.648438 24.878906 104.636719 24.878906 L 102.941406 24.878906 L 104.019531 18.765625 L 105.976562 18.765625 C 107.859375 18.765625 108.875 20.003906 108.589844 21.648438 Z M 113.699219 21.210938 C 113.988281 17.511719 111.675781 14.539062 105.878906 14.539062 L 97.398438 14.539062 L 98.417969 16.703125 C 98.828125 17.640625 99.007812 18.238281 98.765625 19.699219 L 95.6875 37.15625 L 100.777344 37.15625 L 102.269531 28.679688 C 102.269531 28.679688 102.644531 28.628906 103.691406 28.683594 C 105.089844 28.765625 105.320312 29.75 108.144531 37.15625 L 113.714844 37.15625 C 110.71875 29.675781 110.179688 28.332031 109.246094 27.398438 C 111.523438 26.480469 113.464844 24.273438 113.699219 21.210938 "/>
</g>
<g clip-path="url(#clip5)" clip-rule="nonzero">
<path style=" stroke:none;fill-rule:nonzero;fill:rgb(82.553101%,9.42688%,27.6474%);fill-opacity:1;" d="M 57.851562 14.539062 L 59.390625 18.765625 L 64.65625 18.765625 L 61.414062 37.15625 L 66.730469 37.15625 L 69.972656 18.765625 L 75.882812 18.765625 L 77.417969 14.539062 L 57.851562 14.539062 "/>
</g>
<g clip-path="url(#clip6)" clip-rule="nonzero">
<path style=" stroke:none;fill-rule:nonzero;fill:rgb(82.553101%,9.42688%,27.6474%);fill-opacity:1;" d="M 157.613281 14.539062 L 159.152344 18.765625 L 163.589844 18.765625 L 160.351562 37.15625 L 165.667969 37.15625 L 168.910156 18.765625 L 174.464844 18.765625 L 176 14.539062 L 157.613281 14.539062 "/>
</g>
<path style=" stroke:none;fill-rule:nonzero;fill:rgb(82.553101%,9.42688%,27.6474%);fill-opacity:1;" d="M 129.714844 9.894531 C 129.527344 9.878906 129.203125 9.851562 128.957031 9.828125 C 122.511719 9.148438 120.867188 8.65625 120.410156 0.429688 C 120.410156 0.429688 120.378906 0.00390625 120.03125 0.00390625 C 119.679688 0.00390625 119.648438 0.429688 119.648438 0.429688 C 119.195312 8.65625 117.546875 9.148438 111.101562 9.828125 C 110.859375 9.851562 110.53125 9.878906 110.34375 9.894531 C 110.144531 9.910156 109.925781 9.992188 109.925781 10.140625 C 109.925781 10.304688 110.128906 10.386719 110.34375 10.410156 C 117.453125 11.292969 119.046875 11.902344 119.664062 22.160156 C 119.671875 22.386719 119.777344 22.617188 120.03125 22.617188 C 120.28125 22.617188 120.386719 22.386719 120.398438 22.160156 C 121.015625 11.902344 122.605469 11.292969 129.714844 10.410156 C 129.929688 10.386719 130.136719 10.304688 130.136719 10.140625 C 130.136719 9.992188 129.914062 9.910156 129.714844 9.894531 "/>
<g clip-path="url(#clip7)" clip-rule="nonzero">
<path style=" stroke:none;fill-rule:nonzero;fill:rgb(82.553101%,9.42688%,27.6474%);fill-opacity:1;" d="M 130.175781 14.539062 L 131.199219 16.699219 C 131.605469 17.640625 131.789062 18.238281 131.546875 19.703125 L 130.035156 28.332031 C 128.566406 36.734375 124.269531 36.738281 121.613281 36.738281 C 121.121094 37.546875 126.703125 38.800781 130.324219 37.078125 C 133.140625 35.742188 134.535156 33.347656 135.238281 29.257812 C 135.433594 28.140625 137.824219 14.539062 137.824219 14.539062 L 130.175781 14.539062 "/>
</g>
<g clip-path="url(#clip8)" clip-rule="nonzero">
<path style=" stroke:none;fill-rule:nonzero;fill:rgb(82.553101%,9.42688%,27.6474%);fill-opacity:1;" d="M 82.113281 27.582031 L 85.464844 20.957031 L 86.71875 27.582031 Z M 88.941406 16.242188 C 88.710938 15.265625 87.957031 14.539062 86.847656 14.539062 C 85.847656 14.539062 80.3125 14.539062 80.3125 14.539062 L 81.382812 16.800781 C 81.828125 17.769531 81.773438 18.421875 81.179688 19.542969 L 71.886719 37.15625 L 77.257812 37.15625 L 79.988281 31.769531 L 87.511719 31.769531 L 88.53125 37.15625 L 93.808594 37.15625 C 93.808594 37.15625 89.171875 17.222656 88.941406 16.242188 "/>
</g>
<g clip-path="url(#clip9)" clip-rule="nonzero">
<path style=" stroke:none;fill-rule:nonzero;fill:rgb(82.553101%,9.42688%,27.6474%);fill-opacity:1;" d="M 27.253906 27.582031 L 30.609375 20.957031 L 31.863281 27.582031 Z M 34.085938 16.242188 C 33.851562 15.265625 33.101562 14.539062 31.992188 14.539062 C 30.992188 14.539062 25.457031 14.539062 25.457031 14.539062 L 26.527344 16.800781 C 26.972656 17.769531 26.917969 18.421875 26.324219 19.542969 L 17.027344 37.15625 L 22.402344 37.15625 L 25.132812 31.769531 L 32.652344 31.769531 L 33.675781 37.15625 L 38.953125 37.15625 C 38.953125 37.15625 34.320312 17.222656 34.085938 16.242188 "/>
</g>
</g>
</svg>

<svg xmlns="http://www.w3.org/2000/svg" width="176pt" height="50.587" viewBox="0 0 176 37.94"><defs><clipPath id="a"><path d="M0 14h19v23.941H0Zm0 0"/></clipPath><clipPath id="b"><path d="M139 14h19v23.941h-19Zm0 0"/></clipPath><clipPath id="c"><path d="M39 14h18v23.941H39Zm0 0"/></clipPath><clipPath id="d"><path d="M95 14h19v23.941H95Zm0 0"/></clipPath><clipPath id="e"><path d="M57 14h21v23.941H57Zm0 0"/></clipPath><clipPath id="f"><path d="M157 14h19v23.941h-19Zm0 0"/></clipPath><clipPath id="g"><path d="M121 14h17v23.941h-17Zm0 0"/></clipPath><clipPath id="h"><path d="M71 14h23v23.941H71Zm0 0"/></clipPath><clipPath id="i"><path d="M17 14h22v23.941H17Zm0 0"/></clipPath></defs><g clip-path="url(#a)"><path d="m16.809 18.766 2.011-4.227H1.445L2.47 16.7c.41.942.59 1.54.347 3.004-.007.04-2.578 14.64-2.78 15.75-.204 1.156.491 1.703 1.402 1.703h14.625l-.954-4.238H5.734l.907-5.16h8.648l.75-4.258H7.395l.832-4.734z" style="stroke:none;fill-rule:nonzero;fill:#d31847;fill-opacity:1"/></g><g clip-path="url(#b)"><path d="m155.152 18.766 2.016-4.227h-16.55s.41.867 1.027 2.16c.406.942.59 1.54.343 3.004-.004.04-2.582 14.64-2.781 15.75-.207 1.156.496 1.703 1.402 1.703h13.801l-.953-4.238h-8.55l.905-5.16h7.829l.746-4.258h-7.82l.831-4.734z" style="stroke:none;fill-rule:nonzero;fill:#d31847;fill-opacity:1"/></g><g clip-path="url(#c)"><path d="M48.125 20.254c.387-1.219 1.715-1.488 3.66-1.488h3.516l1.539-4.227h-6.008c-2.18 0-7.156-.203-8.223 4.645-1.48 6.75 7.278 8.703 6.84 11.773-.265 1.805-1.984 1.965-4.36 1.965h-5.245l.984 4.234h5.942c3.074 0 7.37-.562 8.378-4.39 1.82-6.887-8.003-9.13-7.023-12.512" style="stroke:none;fill-rule:nonzero;fill:#d31847;fill-opacity:1"/></g><g clip-path="url(#d)"><path d="M108.59 21.648c-.324 1.852-1.942 3.23-3.953 3.23h-1.696l1.079-6.112h1.957c1.882 0 2.898 1.238 2.613 2.882m5.11-.437c.288-3.7-2.024-6.672-7.821-6.672h-8.48l1.019 2.164c.41.938.59 1.535.348 2.996l-3.079 17.457h5.09l1.493-8.476s.375-.051 1.421.004c1.399.082 1.63 1.066 4.454 8.472h5.57c-2.996-7.48-3.535-8.824-4.469-9.758 2.277-.918 4.219-3.125 4.453-6.187" style="stroke:none;fill-rule:nonzero;fill:#d31847;fill-opacity:1"/></g><g clip-path="url(#e)"><path d="m57.852 14.54 1.539 4.226h5.265l-3.242 18.39h5.316l3.243-18.39h5.91l1.535-4.227z" style="stroke:none;fill-rule:nonzero;fill:#d31847;fill-opacity:1"/></g><g clip-path="url(#f)"><path d="m157.613 14.54 1.54 4.226h4.437l-3.238 18.39h5.316l3.242-18.39h5.555L176 14.539z" style="stroke:none;fill-rule:nonzero;fill:#d31847;fill-opacity:1"/></g><path d="M129.715 9.895a72 72 0 0 1-.758-.067c-6.445-.68-8.09-1.172-8.547-9.398 0 0-.031-.426-.379-.426-.351 0-.383.426-.383.426-.453 8.226-2.101 8.718-8.546 9.398-.243.024-.57.05-.758.067-.2.015-.418.097-.418.246 0 .164.203.246.418.27 7.11.882 8.703 1.491 9.32 11.75.008.226.113.456.367.456.25 0 .356-.23.367-.457.618-10.258 2.207-10.867 9.317-11.75.215-.023.422-.105.422-.27 0-.148-.223-.23-.422-.245" style="stroke:none;fill-rule:nonzero;fill:#d31847;fill-opacity:1"/><g clip-path="url(#g)"><path d="m130.176 14.54 1.023 2.16c.406.94.59 1.538.348 3.003l-1.512 8.629c-1.469 8.402-5.765 8.406-8.422 8.406-.492.809 5.09 2.063 8.711.34 2.817-1.336 4.211-3.73 4.914-7.82l2.586-14.719z" style="stroke:none;fill-rule:nonzero;fill:#d31847;fill-opacity:1"/></g><g clip-path="url(#h)"><path d="m82.113 27.582 3.352-6.625 1.254 6.625Zm6.828-11.34c-.23-.976-.984-1.703-2.093-1.703h-6.535l1.07 2.262c.445.969.39 1.62-.203 2.742l-9.293 17.613h5.37l2.731-5.386h7.524l1.02 5.386h5.277s-4.637-19.933-4.868-20.914" style="stroke:none;fill-rule:nonzero;fill:#d31847;fill-opacity:1"/></g><g clip-path="url(#i)"><path d="m27.254 27.582 3.355-6.625 1.254 6.625Zm6.832-11.34c-.234-.976-.984-1.703-2.094-1.703h-6.535l1.07 2.262c.446.969.391 1.62-.203 2.742l-9.297 17.613h5.375l2.73-5.386h7.52l1.024 5.386h5.277s-4.633-19.933-4.867-20.914" style="stroke:none;fill-rule:nonzero;fill:#d31847;fill-opacity:1"/></g></svg>
